X:1
T:The Hornet and the Peacock
M:3/4
L:1/4
K:F
 F| C C C| F F F| A A A| d2 d| c A A| A G A| F D D| D2 F| C C C| F F F|\
 A A A| d2 d| c A A| A G A| F D D| D2||
